X:392
T:Westminster Hall. (p)1698.PLFD.392
M:3/2
L:1/4
Q:1/2=100
S:Playford, Dancing Master,9th Ed,extra pages(9C),1698.
O:England
H:1698
Z:Chris Partington
K:F
"_see Barlow for accidentals"d2f2A2|e>fed^ce|A>_BAGFd|EccGG/A/_B|
FddA_Bc|GeeBB/c/d|Aff^cdg/f/|e/f/d/f/e^cd2:|
|:f2a2c2|f>agfeg|c>dcBAf|Gfgefg|
ag/a/bgaf|ge/f/gefd|eB/c/dB^cA|de/f/e^cd2:|
